html/assets/images/dynamic/benefit-logo-7.svg

<svg width="46" height="44" viewBox="0 0 46 44" fill="none" xmlns="http://www.w3.org/2000/svg">
<path d="M13 22.05H6" stroke="#00999A" stroke-width="2" stroke-linejoin="round"/>
<path d="M40 22.05H33" stroke="#00999A" stroke-width="2" stroke-linejoin="round"/>
<path d="M1 37.07C1 34.49 3 32.05 6 32.05V15.29C3 15.29 1 17.48 1 20.05V37.07Z" stroke="#00999A" stroke-width="2" stroke-linejoin="round"/>
<path d="M45 37.07C45 34.49 43 32.05 40 32.05V15.29C43 15.29 45 17.48 45 20.05V37.07Z" stroke="#00999A" stroke-width="2" stroke-linejoin="round"/>
<path d="M45 37.06C45 39.76 42.75 42.05 39.98 42.05H6.03001C3.26001 42.05 1.01001 39.76 1.01001 37.06" stroke="#00999A" stroke-width="2" stroke-linejoin="round"/>
<path d="M22.99 8.04999H23C25.2 8.04999 26.99 9.71999 26.99 12.04C26.99 14.36 25.21 16.05 23.01 16.05H22.97C20.77 16.05 18.98 14.37 18.99 12.04C18.99 9.71999 20.78 8.04999 22.98 8.04999H22.99Z" stroke="#00999A" stroke-width="2" stroke-miterlimit="10"/>
<path d="M23.0001 1C29.0401 1 33.9301 5.89 33.9301 11.93C33.9301 14.54 33.5501 16.35 32.0601 18.72C30.5801 21.09 23.0001 32.1 23.0001 32.1C23.0001 32.1 15.4201 21.09 13.9401 18.72C12.4601 16.35 12.0701 14.54 12.0701 11.93C12.0701 5.89 16.9601 1 23.0001 1Z" stroke="#00999A" stroke-width="2" stroke-miterlimit="10"/>
</svg>

<svg width="46" height="44" fill="none" xmlns="http://www.w3.org/2000/svg"><path d="M13 22.05H6m34 0h-7M1 37.07c0-2.58 2-5.02 5-5.02V15.29c-3 0-5 2.19-5 4.76v17.02zm44 0c0-2.58-2-5.02-5-5.02V15.29c3 0 5 2.19 5 4.76v17.02z" stroke="#00999A" stroke-width="2" stroke-linejoin="round"/><path d="M45 37.06c0 2.7-2.25 4.99-5.02 4.99H6.03c-2.77 0-5.02-2.29-5.02-4.99" stroke="#00999A" stroke-width="2" stroke-linejoin="round"/><path d="M22.99 8.05H23c2.2 0 3.99 1.67 3.99 3.99 0 2.32-1.78 4.01-3.98 4.01h-.04c-2.2 0-3.99-1.68-3.98-4.01 0-2.32 1.79-3.99 3.99-3.99h.01z" stroke="#00999A" stroke-width="2" stroke-miterlimit="10"/><path d="M23 1c6.04 0 10.93 4.89 10.93 10.93 0 2.61-.38 4.42-1.87 6.79C30.58 21.09 23 32.1 23 32.1s-7.58-11.01-9.06-13.38c-1.48-2.37-1.87-4.18-1.87-6.79C12.07 5.89 16.96 1 23 1z" stroke="#00999A" stroke-width="2" stroke-miterlimit="10"/></svg>
